svg/u1f3cc_1f3fb_200d_2640.svg

<svg viewBox="0 0 128 128" xmlns="http://www.w3.org/2000/svg">
  <path id="ear_1_" d="M74.8,24.13l-0.79-0.21l-1.21,4.42c0.3,0.08,0.6,0.13,0.91,0.13 c0.97,0,1.89-0.47,2.23-1.72C76.44,24.9,74.8,24.13,74.8,24.13z" fill="#EDC391"/>
  <path id="ear" d="M56.04,18.98c0.01,0.01-0.03,0-0.11,0c-0.41,0-1.76,0.12-2.19,1.68 c-0.45,1.63,0.63,2.62,1.88,2.97l1.21-4.43L56.04,18.98z" fill="#EDC391"/>
  <polygon id="neck" fill="#EDC391" points="68.74,28.75 65.12,38.81 57.11,36.97 61.53,16.18 "/>
  <linearGradient id="head_1_" gradientUnits="userSpaceOnUse" x1="55.0069" x2="75.4977" y1="21.5937" y2="21.5937">
    <stop offset="0.5" stop-color="#F9DDBD"/>
    <stop offset="1" stop-color="#FFD29C"/>
  </linearGradient>
  <path id="head" d="M68.75,9.44c-7.41-2.03-10.92,3.18-13.14,11.25c-2.3,8.37,2.49,12.01,6.46,13.1 c3.91,1.07,9.92,0.46,12.24-7.96C76.53,17.75,76.16,11.47,68.75,9.44z" fill="url(#head_1_)"/>
  <radialGradient id="hair_2_" cx="66.1662" cy="119.5424" gradientTransform="matrix(0.9985 0.0538 0.0538 -0.9985 -5.9984 137.0409)" gradientUnits="userSpaceOnUse" r="12.522">
    <stop offset="0" stop-color="#454140"/>
    <stop offset="1" stop-color="#312D2D"/>
  </radialGradient>
  <path id="hair" d="M68.5,32.37c0.8-2.87,3.43-2.83,5.33-4.08l1.35-2.65c0,0,1.53-1.51,2.64-4.85 c1.15-3.44,0.32-9.22-7.87-12.12l-0.22-0.07c-0.06-0.02-0.22-0.06-0.22-0.06c-8.29-2.59-12.42,1.54-13.56,4.97 c-1.11,3.34-0.8,5.45-0.8,5.45l0.12,3.16c0,0,2.77,3.47,1.55,6.36C55.01,32.77,67.1,37.43,68.5,32.37z" fill="url(#hair_2_)"/>
  <radialGradient id="hairHighlights_2_" cx="64.2873" cy="115.1047" gradientTransform="matrix(-0.3473 0.9378 0.7718 0.2858 -2.1156 -67.6197)" gradientUnits="userSpaceOnUse" r="11.183">
    <stop offset="0.3721" stop-color="#454140" stop-opacity="0"/>
    <stop offset="0.8882" stop-color="#454140"/>
  </radialGradient>
  <path id="hairHighlights_1_" d="M68.5,32.33c0.8-2.87,3.43-2.83,5.33-4.08l1.35-2.65 c0,0,1.53-1.51,2.64-4.85c1.15-3.44,0.32-9.22-7.87-12.12l-0.22-0.07c-0.06-0.02-0.22-0.06-0.22-0.06 c-8.29-2.59-12.42,1.54-13.56,4.97c-1.11,3.34-0.8,5.45-0.8,5.45l0.12,3.16c0,0,2.77,3.47,1.55,6.36 C55.01,32.73,67.1,37.39,68.5,32.33z" fill="url(#hairHighlights_2_)"/>
  <path id="tone" d="M41.86,22.42l-2.74-1.7l1.54-2.5c0,0,3.92,1.76,4.25,2.4c0.31,0.63-0.41,1.5-0.41,1.5 C43.54,23.49,42.73,22.95,41.86,22.42z" fill="#EDBD82"/>
  <path id="pants" d="M63.39,88.82c-1.05-0.89-1.74-2.13-1.93-3.49l-1.58-11.18 c1.28-3.67-0.57-14.36-9.24-14.36c-1.11,0-2.34,0.18-3.68,0.57c-2.17,0.63-4.84,7.79-4.84,7.79l8.44,25.79 c0.22,0.82,0.61,1.6,1.16,2.31c0.79,1,1.82,1.71,2.94,2.11l21.76,11.49l3.67-7L63.39,88.82z" fill="#616161"/>
  <path id="shoe" d="M84.35,102.44l-2.42-1.63c-0.97-0.66-2.39-0.79-3.41-0.79c-0.72,0-1.23,0.07-1.23,0.07 l-4.08,6.02l-1.88,6.63c-0.37,1.66,0.3,3.38,1.7,4.35l1.09,0.74c0.18,0.12,0.38,0.18,0.59,0.18c0.33,0,0.66-0.16,0.86-0.46 l9.1-13.45C85.04,103.55,84.9,102.81,84.35,102.44z" fill="#325599"/>
  <path id="pants_1_" d="M41.2,62.28l-4.72,22.26c-0.77,3.61-0.91,7.33-0.42,11l2.95,22.18l7.33-0.02 c0,0,1.87-24.72,1.89-24.76l6.26-18.98l0.23-0.33c1.93-2.05,2.71-6.93,2.71-6.93L41.2,62.28z" fill="#7C7C7C"/>
  <path id="shoe_1_" d="M47.04,114.97H39.2l-7.06,2.33c-1.71,0.67-2.84,2.32-2.85,4.15l-0.01,1.42 c0,0.62,0.5,1.13,1.12,1.13l17.51-0.02c0.71,0,1.29-0.58,1.29-1.29v-3.15C49.21,117.4,47.04,114.97,47.04,114.97z" fill="#4568AD"/>
  <path id="driver_1_" d="M96.68,58.74c0,0,4.66,2.6,5.18,3.72c0.38,0.83,0.45,3.77,0.24,5.65 C101.9,70,101,70.4,101,70.4s-1.58,1.05-3.28,1.32c-1.71,0.27-1.79-1.27-1.79-1.27s-0.35-2.81-0.18-3.73s0.83-2.61,1.76-3.75 c0.42-0.51-0.26-0.95-0.26-0.95l-1.86-1.42L96.68,58.74z" fill="#504F4F"/>
  <path id="shirt" d="M37.38,37.86l4.53-8.74l-6.84-3.6l-5.85,11.29c-0.81,1.56-0.81,3.42,0,4.98l0,0 c1.04,2.01,2.95,3.43,5.17,3.85l20.62,3.89l1.38-9.78L37.38,37.86z" fill="#201284"/>
  <linearGradient id="shirt_3_" gradientUnits="userSpaceOnUse" x1="39.3252" x2="68.1193" y1="52.5102" y2="52.5102">
    <stop offset="0" stop-color="#651FFF"/>
    <stop offset="0.7047" stop-color="#5914F2"/>
    <stop offset="1" stop-color="#530EEB"/>
  </linearGradient>
  <path id="shirt_1_" d="M67.22,37.39c-0.62-1.38-1.48-2.3-2.49-2.66l-5.94-1.92 c-4.08-1.47-8.32,2.59-9.67,5.9c-3.44,6.2-6.67,14.92-9.58,25.91c-0.39,1.29-0.25,2.66,0.39,3.85c0.64,1.2,1.71,2.07,3.01,2.46 c0.01,0,0.01,0,0.02,0c1.83,0.48,7.31,1.6,11.92,1.6c2.37,0,4.52-0.3,5.81-1.13c0.75-0.48,1.2-1.11,1.33-1.92 c0.95-9.05,2.25-16.65,5.5-24.31C68.42,42.97,68.29,39.77,67.22,37.39z" fill="url(#shirt_3_)"/>
  <radialGradient id="hair_3_" cx="69.0121" cy="42.141" gradientUnits="userSpaceOnUse" r="9.8383">
    <stop offset="0" stop-color="#454140"/>
    <stop offset="1" stop-color="#312D2D"/>
  </radialGradient>
  <path id="hair_1_" d="M78.9,51.91c0,0-9.12,0.62-15.74-5.12c-2.55-2.2-3.59-4.83-3.91-7.23 c-0.05-0.36-0.09-0.72-0.1-1.07c-0.07-1.14,0.01-2.21,0.15-3.12c0.06-0.38,0.13-0.74,0.19-1.06c0.27-1.19,0.57-1.93,0.57-1.93 s5.57-0.89,8.4,7.46c0.01,0.04,0.03,0.08,0.04,0.12c0.06,0.19,0.12,0.39,0.18,0.59c0.54,1.77,1.41,3.35,2.45,4.73 c0.4,0.54,0.82,1.04,1.25,1.51C75.38,50.11,78.9,51.91,78.9,51.91z" fill="url(#hair_3_)"/>
  <radialGradient id="hairHighlights_3_" cx="79.2022" cy="30.1735" gradientUnits="userSpaceOnUse" r="21.7938">
    <stop offset="0.8494" stop-color="#454140"/>
    <stop offset="1" stop-color="#454140" stop-opacity="0"/>
  </radialGradient>
  <path id="hairHighlights" d="M78.9,51.91c0,0-9.12,0.62-15.74-5.12 c-2.55-2.2-3.59-4.83-3.91-7.23c-0.05-0.36-0.09-0.72-0.1-1.07c-0.07-1.14,0.01-2.21,0.15-3.12c0.06-0.38,0.13-0.74,0.19-1.06 c0.27-1.19,0.57-1.93,0.57-1.93s5.57-0.89,8.4,7.46c0.01,0.04,0.03,0.08,0.04,0.12c0.06,0.19,0.12,0.39,0.18,0.59 c0.54,1.77,1.41,3.35,2.45,4.73c0.4,0.54,0.82,1.04,1.25,1.51C75.38,50.11,78.9,51.91,78.9,51.91z" fill="url(#hairHighlights_3_)"/>
  <path id="stick_x5F_shadow" d="M72.38,46.79l-12.75-8l-0.48-0.3 l-6.69-4.2c0,0,2.75-1.86,3.68-1.81c0.26,0.01,1.57,0.75,3.35,1.83c0.21,0.13,0.43,0.26,0.65,0.4c1.78,1.09,5.43,3.38,8.36,5.25 c0.06,0.19,0.12,0.39,0.18,0.59c0.54,1.77,1.41,3.35,2.45,4.73C71.53,45.82,71.95,46.32,72.38,46.79z" enable-background="new " fill="#212121" opacity="0.4"/>
  <polygon id="stick" fill="#7C7D7D" points="95.39,60.6 96.68,58.74 46.65,24.02 44.92,26.53 "/>
  <path id="handle" d="M44.92,26.53l1.73-2.51L31.48,13.61c-0.69-0.47-1.64-0.3-2.11,0.39 c-0.48,0.69-0.3,1.65,0.39,2.12L44.92,26.53z" fill="#504F4F"/>
  <path id="tone_1_" d="M46.73,21.82c-0.33-0.49-0.91-0.74-1.49-0.63c-0.6,0.11-1,0.62-1.22,0.97 c-0.03,0.04-0.25,0.33-0.42,0.7c-0.53,0.08-1.07,0.21-1.39,0.31l-3.08,1.38c-0.18,0.08-0.29,0.25-0.3,0.44l-0.08,2.12 c0,0.06,0.01,0.11,0.02,0.16c0.18,0.64,1.46,1.5,2.1,1.76c0.16,0.06,0.36,0.13,0.56,0.13c0.12,0,0.24-0.02,0.36-0.09 c0.21-0.11,0.29-0.29,0.69-1.23c0.2-0.46,0.56-1.31,0.63-1.42c0.95-0.53,2-0.72,2.07-0.74c0.1-0.03,0.2-0.08,0.29-0.15 c0.22-0.11,0.3-0.32,0.3-0.34c0.09-0.16,0.15-0.35,0.17-0.5l0.09-0.27c0.26-0.77,0.76-1.39,0.8-1.44 C47.03,22.67,46.99,22.21,46.73,21.82z" fill="#EDBD82"/>
  <g id="hand">
    <linearGradient id="SVGID_1_" gradientUnits="userSpaceOnUse" x1="39.8889" x2="37.0982" y1="16.3997" y2="23.9345">
      <stop offset="0.35" stop-color="#F9DDBD"/>
      <stop offset="1" stop-color="#FFD29C"/>
    </linearGradient>
    <path d="M44.07,17.72c-0.92-0.79-1.2,0.07-1.8-0.22s-0.31-0.69-0.86-0.91 c-0.91-0.36-1.25,0.22-1.73,0.04c-0.5-0.18-0.25-0.54-0.94-0.69c-0.78-0.17-0.97,0.4-1.51,0.16c-0.53-0.25-0.45-0.45-1.02-0.58 c-0.61-0.14-1.07,0.01-1.66,0.88c-1.56,2.29-2.42,7.02-2.42,7.02l6.77,3.45c0,0,4.35-5.42,4.91-6.32 C44.35,19.66,44.99,18.52,44.07,17.72z" fill="url(#SVGID_1_)"/>
  </g>
  <path id="shirt_2_" d="M59.27,40.58c0,2.8-2.1,4.87-4.2,5.33c-0.08,0.06-1.2,0.08-1.37,0.06l-23.24-0.8 c-1.14,0.08-2.29-0.3-3.18-1.09c-1.35-1.18-1.84-3.05-1.26-4.75l5.46-16.88c0.04-0.14,0.14-0.25,0.27-0.3 c0.13-0.05,0.28-0.06,0.41,0l7.63,3.52c0.24,0.11,0.35,0.38,0.26,0.62l-3.5,9.8l17.14-0.9c0.03-0.01,0.1-0.01,0.18-0.01 c0.35-0.02,1.03-0.01,1.09,0.04c1.51,0.28,3.03,1.38,3.79,3.02C59.08,38.93,59.27,39.72,59.27,40.58z" fill="#4300D9"/>
  <path id="shoulder_x5F_shadow" d="M58.75,38.24l-4.88-3.06 c0.35-0.02,1.03-0.01,1.09,0.04C56.47,35.5,57.99,36.6,58.75,38.24z" enable-background="new " fill="#212121" opacity="0.4"/>
  <g id="cap">
    <ellipse cx="67.44" cy="12.67" fill="#1976D2" rx="8.66" ry="10.64" transform="matrix(0.0682 -0.9977 0.9977 0.0682 50.2016 79.0932)"/>
    <radialGradient id="SVGID_2_" cx="67.9012" cy="118.001" gradientTransform="matrix(1 0 0 -1 0 130)" gradientUnits="userSpaceOnUse" r="15.401">
      <stop offset="0.1701" stop-color="#42A5F5"/>
      <stop offset="0.4571" stop-color="#3798EB"/>
      <stop offset="0.9831" stop-color="#1976D2"/>
    </radialGradient>
    <path d="M75.03,10.83c4.85,5.52,3.59,11.46-0.08,16.19c-3.91,5.05-13.87,3.1-18.13-1.86 s-3.3-11.37,1.28-15.3S70.71,5.91,75.03,10.83z" fill="url(#SVGID_2_)"/>
    <ellipse cx="67.34" cy="13.28" fill="#0665B2" rx="1.21" ry="1.4" transform="matrix(0.1791 -0.9838 0.9838 0.1791 42.2057 77.1517)"/>
  </g>
</svg>

<svg viewBox="0 0 128 128" xmlns="http://www.w3.org/2000/svg">
  <defs>
    <radialGradient id="hairHighlights_2_" cx="1.612983" cy="84.160945" gradientTransform="matrix(-0.3473 0.9378 0.7718 0.2858 0 0)" gradientUnits="userSpaceOnUse" r="11.183">
      <stop offset="0.3721" stop-color="#454140" stop-opacity="0"/>
      <stop offset="0.8882" stop-color="#454140"/>
    </radialGradient>
    <radialGradient id="hair_2_" cx="67.549741" cy="-17.629824" gradientTransform="matrix(0.9985 0.0538 0.0538 -0.9985 0 0)" gradientUnits="userSpaceOnUse" r="12.522">
      <stop offset="0" stop-color="#454140"/>
      <stop offset="1" stop-color="#312D2D"/>
    </radialGradient>
    <linearGradient id="head_1_" gradientUnits="userSpaceOnUse" x1="55.0069" x2="75.4977" y1="21.5937" y2="21.5937">
      <stop offset="0.5" stop-color="#F9DDBD"/>
      <stop offset="1" stop-color="#FFD29C"/>
    </linearGradient>
    <linearGradient id="shirt_3_" gradientUnits="userSpaceOnUse" x1="39.3252" x2="68.1193" y1="52.5102" y2="52.5102">
      <stop offset="0" stop-color="#651FFF"/>
      <stop offset="0.7047" stop-color="#5914F2"/>
      <stop offset="1" stop-color="#530EEB"/>
    </linearGradient>
    <radialGradient id="hair_3_" cx="69.0121" cy="42.141" gradientUnits="userSpaceOnUse" r="9.8383">
      <stop offset="0" stop-color="#454140"/>
      <stop offset="1" stop-color="#312D2D"/>
    </radialGradient>
    <radialGradient id="hairHighlights_3_" cx="79.2022" cy="30.1735" gradientUnits="userSpaceOnUse" r="21.7938">
      <stop offset="0.8494" stop-color="#454140"/>
      <stop offset="1" stop-color="#454140" stop-opacity="0"/>
    </radialGradient>
    <linearGradient id="SVGID_1_" gradientUnits="userSpaceOnUse" x1="39.8889" x2="37.0982" y1="16.3997" y2="23.9345">
      <stop offset="0.35" stop-color="#F9DDBD"/>
      <stop offset="1" stop-color="#FFD29C"/>
    </linearGradient>
    <radialGradient id="SVGID_2_" cx="67.9012" cy="-11.999" gradientTransform="matrix(1 0 0 -1 0 0)" gradientUnits="userSpaceOnUse" r="15.401">
      <stop offset="0.1701" stop-color="#42A5F5"/>
      <stop offset="0.4571" stop-color="#3798EB"/>
      <stop offset="0.9831" stop-color="#1976D2"/>
    </radialGradient>
  </defs>
  <path id="ear_1_" d="M74.8,24.13 L74.01,23.92 L72.8,28.34 C73.1,28.42 73.4,28.47 73.71,28.47 C74.68,28.47 75.6,28 75.94,26.75 C76.44,24.9 74.8,24.13 74.8,24.13 Z" fill="#EDC391"/>
  <path id="ear" d="M56.04,18.98 C56.05,18.99 56.01,18.98 55.93,18.98 C55.52,18.98 54.17,19.1 53.74,20.66 C53.29,22.29 54.37,23.28 55.62,23.63 L56.83,19.2 L56.04,18.98 Z" fill="#EDC391"/>
  <path id="neck" d="M68.74,28.75 L65.12,38.81 L57.11,36.97 L61.53,16.18 Z" fill="#EDC391"/>
  <path id="head" d="M68.75,9.44 C61.34,7.41 57.83,12.62 55.61,20.69 C53.31,29.06 58.1,32.7 62.07,33.79 C65.98,34.86 71.99,34.25 74.31,25.83 C76.53,17.75 76.16,11.47 68.75,9.44 Z" fill="url(#head_1_)"/>
  <path id="hair" d="M68.5,32.37 C69.3,29.5 71.93,29.54 73.83,28.29 L75.18,25.64 C75.18,25.64 76.71,24.13 77.82,20.79 C78.97,17.35 78.14,11.57 69.95,8.67 L69.73,8.6 C69.67,8.58 69.51,8.54 69.51,8.54 C61.22,5.95 57.09,10.08 55.95,13.51 C54.84,16.85 55.15,18.96 55.15,18.96 L55.27,22.12 C55.27,22.12 58.04,25.59 56.82,28.48 C55.01,32.77 67.1,37.43 68.5,32.37 Z" fill="url(#hair_2_)"/>
  <path id="hairHighlights_1_" d="M68.5,32.33 C69.3,29.46 71.93,29.5 73.83,28.25 L75.18,25.6 C75.18,25.6 76.71,24.09 77.82,20.75 C78.97,17.31 78.14,11.53 69.95,8.63 L69.73,8.56 C69.67,8.54 69.51,8.5 69.51,8.5 C61.22,5.91 57.09,10.04 55.95,13.47 C54.84,16.81 55.15,18.92 55.15,18.92 L55.27,22.08 C55.27,22.08 58.04,25.55 56.82,28.44 C55.01,32.73 67.1,37.39 68.5,32.33 Z" fill="url(#hairHighlights_2_)"/>
  <path id="tone" d="M41.86,22.42 L39.12,20.72 L40.66,18.22 C40.66,18.22 44.58,19.98 44.91,20.62 C45.22,21.25 44.5,22.12 44.5,22.12 C43.54,23.49 42.73,22.95 41.86,22.42 Z" fill="#EDBD82"/>
  <path id="pants" d="M63.39,88.82 C62.34,87.93 61.65,86.69 61.46,85.33 L59.88,74.15 C61.16,70.48 59.31,59.79 50.64,59.79 C49.53,59.79 48.3,59.97 46.96,60.36 C44.79,60.99 42.12,68.15 42.12,68.15 L50.56,93.94 C50.78,94.76 51.17,95.54 51.72,96.25 C52.51,97.25 53.54,97.96 54.66,98.36 L76.42,109.85 L80.09,102.85 L63.39,88.82 Z" fill="#616161"/>
  <path id="shoe" d="M84.35,102.44 L81.93,100.81 C80.96,100.15 79.54,100.02 78.52,100.02 C77.8,100.02 77.29,100.09 77.29,100.09 L73.21,106.11 L71.33,112.74 C70.96,114.4 71.63,116.12 73.03,117.09 L74.12,117.83 C74.3,117.95 74.5,118.01 74.71,118.01 C75.04,118.01 75.37,117.85 75.57,117.55 L84.67,104.1 C85.04,103.55 84.9,102.81 84.35,102.44 Z" fill="#325599"/>
  <path id="pants_1_" d="M41.2,62.28 L36.48,84.54 C35.71,88.15 35.57,91.87 36.06,95.54 L39.01,117.72 L46.34,117.7 C46.34,117.7 48.21,92.98 48.23,92.94 L54.49,73.96 L54.72,73.63 C56.65,71.58 57.43,66.7 57.43,66.7 L41.2,62.28 Z" fill="#7C7C7C"/>
  <path id="shoe_1_" d="M47.04,114.97 L39.2,114.97 L32.14,117.3 C30.43,117.97 29.3,119.62 29.29,121.45 L29.28,122.87 C29.28,123.49 29.78,124 30.4,124 L47.91,123.98 C48.62,123.98 49.2,123.4 49.2,122.69 L49.2,119.54 C49.21,117.4 47.04,114.97 47.04,114.97 Z" fill="#4568AD"/>
  <path id="driver_1_" d="M96.68,58.74 C96.68,58.74 101.34,61.34 101.86,62.46 C102.24,63.29 102.31,66.23 102.1,68.11 C101.9,70 101,70.4 101,70.4 C101,70.4 99.42,71.45 97.72,71.72 C96.01,71.99 95.93,70.45 95.93,70.45 C95.93,70.45 95.58,67.64 95.75,66.72 C95.92,65.8 96.58,64.11 97.51,62.97 C97.93,62.46 97.25,62.02 97.25,62.02 L95.39,60.6 L96.68,58.74 Z" fill="#504F4F"/>
  <path id="shirt" d="M37.38,37.86 L41.91,29.12 L35.07,25.52 L29.22,36.81 C28.41,38.37 28.41,40.23 29.22,41.79 L29.22,41.79 C30.26,43.8 32.17,45.22 34.39,45.64 L55.01,49.53 L56.39,39.75 L37.38,37.86 Z" fill="#201284"/>
  <path id="shirt_1_" d="M67.22,37.39 C66.6,36.01 65.74,35.09 64.73,34.73 L58.79,32.81 C54.71,31.34 50.47,35.4 49.12,38.71 C45.68,44.91 42.45,53.63 39.54,64.62 C39.15,65.91 39.29,67.28 39.93,68.47 C40.57,69.67 41.64,70.54 42.94,70.93 C42.95,70.93 42.95,70.93 42.96,70.93 C44.79,71.41 50.27,72.53 54.88,72.53 C57.25,72.53 59.4,72.23 60.69,71.4 C61.44,70.92 61.89,70.29 62.02,69.48 C62.97,60.43 64.27,52.83 67.52,45.17 C68.42,42.97 68.29,39.77 67.22,37.39 Z" fill="url(#shirt_3_)"/>
  <path id="hair_1_" d="M78.9,51.91 C78.9,51.91 69.78,52.53 63.16,46.79 C60.61,44.59 59.57,41.96 59.25,39.56 C59.2,39.2 59.16,38.84 59.15,38.49 C59.08,37.35 59.16,36.28 59.3,35.37 C59.36,34.99 59.43,34.63 59.49,34.31 C59.76,33.12 60.06,32.38 60.06,32.38 C60.06,32.38 65.63,31.49 68.46,39.84 C68.47,39.88 68.49,39.92 68.5,39.96 C68.56,40.15 68.62,40.35 68.68,40.55 C69.22,42.32 70.09,43.9 71.13,45.28 C71.53,45.82 71.95,46.32 72.38,46.79 C75.38,50.11 78.9,51.91 78.9,51.91 Z" fill="url(#hair_3_)"/>
  <path id="hairHighlights" d="M78.9,51.91 C78.9,51.91 69.78,52.53 63.16,46.79 C60.61,44.59 59.57,41.96 59.25,39.56 C59.2,39.2 59.16,38.84 59.15,38.49 C59.08,37.35 59.16,36.28 59.3,35.37 C59.36,34.99 59.43,34.63 59.49,34.31 C59.76,33.12 60.06,32.38 60.06,32.38 C60.06,32.38 65.63,31.49 68.46,39.84 C68.47,39.88 68.49,39.92 68.5,39.96 C68.56,40.15 68.62,40.35 68.68,40.55 C69.22,42.32 70.09,43.9 71.13,45.28 C71.53,45.82 71.95,46.32 72.38,46.79 C75.38,50.11 78.9,51.91 78.9,51.91 Z" fill="url(#hairHighlights_3_)"/>
  <path id="stick_x5F_shadow" d="M72.38,46.79 L59.63,38.79 L59.15,38.49 L52.46,34.29 C52.46,34.29 55.21,32.43 56.14,32.48 C56.4,32.49 57.71,33.23 59.49,34.31 C59.7,34.44 59.92,34.57 60.14,34.71 C61.92,35.8 65.57,38.09 68.5,39.96 C68.56,40.15 68.62,40.35 68.68,40.55 C69.22,42.32 70.09,43.9 71.13,45.28 C71.53,45.82 71.95,46.32 72.38,46.79 Z" fill="#212121" opacity="0.4"/>
  <path id="stick" d="M95.39,60.6 L96.68,58.74 L46.65,24.02 L44.92,26.53 Z" fill="#7C7D7D"/>
  <path id="handle" d="M44.92,26.53 L46.65,24.02 L31.48,13.61 C30.79,13.14 29.84,13.31 29.37,14 C28.89,14.69 29.07,15.65 29.76,16.12 L44.92,26.53 Z" fill="#504F4F"/>
  <path id="tone_1_" d="M46.73,21.82 C46.4,21.33 45.82,21.08 45.24,21.19 C44.64,21.3 44.24,21.81 44.02,22.16 C43.99,22.2 43.77,22.49 43.6,22.86 C43.07,22.94 42.53,23.07 42.21,23.17 L39.13,24.55 C38.95,24.63 38.84,24.8 38.83,24.99 L38.75,27.11 C38.75,27.17 38.76,27.22 38.77,27.27 C38.95,27.91 40.23,28.77 40.87,29.03 C41.03,29.09 41.23,29.16 41.43,29.16 C41.55,29.16 41.67,29.14 41.79,29.07 C42,28.96 42.08,28.78 42.48,27.84 C42.68,27.38 43.04,26.53 43.11,26.42 C44.06,25.89 45.11,25.7 45.18,25.68 C45.28,25.65 45.38,25.6 45.47,25.53 C45.69,25.42 45.77,25.21 45.77,25.19 C45.86,25.03 45.92,24.84 45.94,24.69 L46.03,24.42 C46.29,23.65 46.79,23.03 46.83,22.98 C47.03,22.67 46.99,22.21 46.73,21.82 Z" fill="#EDBD82"/>
  <path d="M44.07,17.72 C43.15,16.93 42.87,17.79 42.27,17.5 C41.67,17.21 41.96,16.81 41.41,16.59 C40.5,16.23 40.16,16.81 39.68,16.63 C39.18,16.45 39.43,16.09 38.74,15.94 C37.96,15.77 37.77,16.34 37.23,16.1 C36.7,15.85 36.78,15.65 36.21,15.52 C35.6,15.38 35.14,15.53 34.55,16.4 C32.99,18.69 32.13,23.42 32.13,23.42 L38.9,26.87 C38.9,26.87 43.25,21.45 43.81,20.55 C44.35,19.66 44.99,18.52 44.07,17.72 Z" fill="url(#SVGID_1_)"/>
  <path id="shirt_2_" d="M59.27,40.58 C59.27,43.38 57.17,45.45 55.07,45.91 C54.99,45.97 53.87,45.99 53.7,45.97 L30.46,45.17 C29.32,45.25 28.17,44.87 27.28,44.08 C25.93,42.9 25.44,41.03 26.02,39.33 L31.48,22.45 C31.52,22.31 31.62,22.2 31.75,22.15 C31.88,22.1 32.03,22.09 32.16,22.15 L39.79,25.67 C40.03,25.78 40.14,26.05 40.05,26.29 L36.55,36.09 L53.69,35.19 C53.72,35.18 53.79,35.18 53.87,35.18 C54.22,35.16 54.9,35.17 54.96,35.22 C56.47,35.5 57.99,36.6 58.75,38.24 C59.08,38.93 59.27,39.72 59.27,40.58 Z" fill="#4300D9"/>
  <path id="shoulder_x5F_shadow" d="M58.75,38.24 L53.87,35.18 C54.22,35.16 54.9,35.17 54.96,35.22 C56.47,35.5 57.99,36.6 58.75,38.24 Z" fill="#212121" opacity="0.4"/>
  <path d="M68.032,4.032 C73.895,4.433 78.384,8.626 78.057,13.398 C77.731,18.17 72.714,21.713 66.851,21.312 C60.988,20.912 56.5,16.719 56.826,11.947 C57.153,7.175 62.17,3.632 68.032,4.032 Z" fill="#1976D2"/>
  <path d="M75.03,10.83 C79.88,16.35 78.62,22.29 74.95,27.02 C71.04,32.07 61.08,30.12 56.82,25.16 C52.56,20.2 53.52,13.79 58.1,9.86 C62.68,5.93 70.71,5.91 75.03,10.83 Z" fill="url(#SVGID_2_)"/>
  <path d="M67.548,12.091 C68.309,12.229 68.828,12.874 68.708,13.532 C68.589,14.189 67.875,14.61 67.114,14.471 C66.354,14.333 65.834,13.688 65.954,13.03 C66.074,12.373 66.787,11.952 67.548,12.091 Z" fill="#0665B2"/>
</svg>
